X: 1
T: the Last Day of August
C: Bobby Frew
R: reel
Z: 2006 John Chambers <jc:trillian.mit.edu>
S: handwritten MS probably from Barbara McOwen
M: C|
L: 1/8
K: A
AB \
| "A"cABc ABcA | B2AB cABc | ABcA "F#m"BAFE | "Bm"FBBc "E7"B2AB | "A"cABc ABcA |
| B2AB cABc | "F#m"efec "E7"BAFE | "D"F2A2 "A"A2 :: cd | "A"ecea "D"fddf | "A"ecce "E7"dBBd |
| "A"cAce "F#m"dcBA | "Bm"FBBc "E7"B2cd | "A"ecea "D"fddf | "A"ecce "E7"dBBd | "A"cdec "A7"BAFE | "D"F2A2 "A"A2 :|
